X: 4222
T: JIG in A
R: Jig
%R: jig
B: James Kerr "Merry Melodies" v.4 p.25 #222
Z: 2016 John Chambers <jc:trillian.mit.edu>
M: 6/8
L: 1/8
K: A
AA |\
EAA AGA | Bdd dBd | eae dBG | ABA GFE |\
EAA AGA | Bdd dBd | eae dBG | BAA A :|
|: cd |\
eaa e3 | eaa bag | eaa e3 | BGB dBG |\
eaa e3 | eaa bag | eae dBG | BAA A :|

%%sep 1 1 500
%%sep 1 1 500

